source/img/youtube.svg

<svg width="28" height="23" viewBox="0 0 28 23" fill="none" xmlns="http://www.w3.org/2000/svg">
<path d="M17.8509 11.2927L12.6145 7.80184C12.5159 7.73691 12.4016 7.69985 12.2837 7.69459C12.1657 7.68934 12.0486 7.71608 11.9446 7.77198C11.8406 7.82789 11.7537 7.91087 11.693 8.01215C11.6324 8.11343 11.6002 8.22924 11.6 8.34729V15.3291C11.6001 15.4481 11.6327 15.5648 11.6942 15.6667C11.7557 15.7686 11.8438 15.8518 11.9491 15.9073C12.0524 15.9631 12.1691 15.9895 12.2864 15.9837C12.4037 15.978 12.5172 15.9402 12.6145 15.8746L17.8509 12.3837C17.9409 12.3239 18.0148 12.2429 18.0658 12.1477C18.1169 12.0526 18.1436 11.9462 18.1436 11.8382C18.1436 11.7302 18.1169 11.6239 18.0658 11.5287C18.0148 11.4335 17.9409 11.3525 17.8509 11.2927ZM12.9091 14.1073V9.56911L16.3127 11.8382L12.9091 14.1073ZM25.3891 5.54366C25.2942 5.17547 25.1131 4.83511 24.8609 4.55061C24.6086 4.26611 24.2924 4.04561 23.9382 3.90729C20.2182 2.4782 14.2509 2.50002 14 2.50002C13.7491 2.50002 7.78182 2.4782 4.06182 3.90729C3.70764 4.04561 3.3914 4.26611 3.13914 4.55061C2.88689 4.83511 2.70584 5.17547 2.61091 5.54366C2.32727 6.61275 2 8.57638 2 11.8382C2 15.1 2.32727 17.0637 2.61091 18.1327C2.70584 18.5009 2.88689 18.8413 3.13914 19.1258C3.3914 19.4103 3.70764 19.6308 4.06182 19.7691C7.78182 21.1982 13.7491 21.1764 14 21.1764H14.0764C14.8291 21.1764 20.3927 21.1327 23.9382 19.7691C24.2924 19.6308 24.6086 19.4103 24.8609 19.1258C25.1131 18.8413 25.2942 18.5009 25.3891 18.1327C25.6727 17.0637 26 15.1 26 11.8382C26 8.57638 25.6727 6.61275 25.3891 5.54366ZM24.1236 17.8055C24.0807 17.972 23.999 18.1259 23.8853 18.2548C23.7715 18.3838 23.6289 18.484 23.4691 18.5473C19.9782 19.8891 14.0655 19.8673 14 19.8673C13.9345 19.8673 8.02182 19.8891 4.53091 18.5473C4.37107 18.484 4.22846 18.3838 4.11471 18.2548C4.00096 18.1259 3.91929 17.972 3.87636 17.8055C3.61455 16.8018 3.30909 14.9582 3.30909 11.8382C3.30909 8.7182 3.61455 6.87457 3.87636 5.87093C3.91929 5.70445 4.00096 5.55047 4.11471 5.42156C4.22846 5.29264 4.37107 5.19243 4.53091 5.12911C8.02182 3.78729 13.9345 3.80911 14 3.80911C14.0655 3.80911 19.9782 3.78729 23.4691 5.12911C23.6289 5.19243 23.7715 5.29264 23.8853 5.42156C23.999 5.55047 24.0807 5.70445 24.1236 5.87093C24.3855 6.87457 24.6909 8.7182 24.6909 11.8382C24.6909 14.9582 24.3855 16.8018 24.1236 17.8055Z" fill="#231F20"/>
</svg>

<svg width="28" height="23" viewBox="0 0 28 23" fill="none" xmlns="http://www.w3.org/2000/svg"><path d="m17.85 11.293-5.236-3.491a.655.655 0 0 0-1.014.545v6.982a.654.654 0 0 0 1.014.546l5.237-3.491a.655.655 0 0 0 0-1.091Zm-4.94 2.814V9.57l3.403 2.27-3.404 2.268Zm12.48-8.563a2.4 2.4 0 0 0-1.452-1.637C20.218 2.478 14.251 2.5 14 2.5c-.25 0-6.218-.022-9.938 1.407A2.4 2.4 0 0 0 2.61 5.544C2.327 6.613 2 8.576 2 11.838c0 3.262.327 5.226.61 6.295a2.4 2.4 0 0 0 1.452 1.636c3.72 1.43 9.687 1.407 9.938 1.407h.076c.753 0 6.317-.043 9.862-1.407a2.4 2.4 0 0 0 1.451-1.636c.284-1.07.611-3.033.611-6.295s-.327-5.225-.61-6.294Zm-1.266 12.261a1.09 1.09 0 0 1-.655.742c-3.49 1.342-9.404 1.32-9.469 1.32-.066 0-5.978.022-9.47-1.32a1.09 1.09 0 0 1-.654-.742c-.261-1.003-.567-2.847-.567-5.967 0-3.12.306-4.963.567-5.967a1.09 1.09 0 0 1 .655-.742C8.02 3.787 13.935 3.81 14 3.81c.066 0 5.978-.022 9.47 1.32a1.092 1.092 0 0 1 .654.742c.262 1.004.567 2.847.567 5.967 0 3.12-.305 4.964-.567 5.967Z" fill="#231F20"/></svg>
